svgs/light/camera-web-slash.svg

<svg xmlns="http://www.w3.org/2000/svg" viewBox="0 0 640 512"><!--! Font Awesome Pro 6.3.0 by @fontawesome - https://fontawesome.com License - https://fontawesome.com/license (Commercial License) Copyright 2023 Fonticons, Inc. --><path d="M452.9 279.3C460 262.3 464 243.6 464 224c0-79.41-64.59-144-144-144c-31.59 0-60.59 10.53-84.35 27.84L262 128.7C278.1 118.3 298.7 112 320 112c61.75 0 112 50.25 112 112c0 12-2.395 23.35-5.906 34.2L452.9 279.3zM103.7 166.8C98.83 185.1 95.1 204.2 95.1 223.1c0 123.7 100.3 224 224 224c38.39 0 74.5-9.686 106.1-26.7l-27.96-22.08C374.2 409.9 347.8 416 320 416c-105.9 0-192-86.13-192-192c0-12.09 1.256-23.88 3.404-35.35L103.7 166.8zM320 32c105.9 0 192 86.13 192 192c0 30.87-7.5 59.97-20.5 85.84l25.76 20.33c17.04-31.6 26.74-67.75 26.74-106.2c0-123.7-100.3-223.1-223.1-223.1c-57.21 0-109.2 21.63-148.8 56.93l25.5 20.13C230.1 48.99 273.1 32 320 32zM320 368c11.47 0 22.5-1.693 33.2-4.24l-35.45-27.98c-50.89-1.029-93.21-36.15-105.7-83.43L176 223.9c0 .0449 0-.0449 0 0C176 303.3 240.6 368 320 368zM495.1 480H160.3l18.12-21.74c8.691-10.43 1.277-26.26-12.3-26.26c-4.75 0-9.256 2.109-12.3 5.758l-17.14 20.56c-7.201 8.639-10.41 20.42-6.998 31.13c4.379 13.74 16.39 22.54 30.4 22.54l335.9 .0145C504.9 512 512 504.8 512 496C512 487.2 504.8 480 495.1 480zM633.9 483.4L25.92 3.424c-6.938-5.453-17-4.25-22.48 2.641c-5.469 6.938-4.281 17 2.641 22.48l608 480c2.938 2.312 6.438 3.438 9.906 3.438c4.734 0 9.422-2.094 12.58-6.078C642 498.1 640.8 488.9 633.9 483.4z"/></svg>

<svg xmlns="http://www.w3.org/2000/svg" viewBox="0 0 640 512"><!-- Font Awesome Pro 6.0.0-alpha2 by @fontawesome - https://fontawesome.com License - https://fontawesome.com/license (Commercial License) --><path d="M452.872 279.344C460.001 262.291 464.001 243.613 464.001 224.004C464.001 144.598 399.407 80.004 320.001 80.004C288.409 80.004 259.415 90.533 235.648 107.846L262.019 128.664C278.987 118.303 298.708 112.004 320.001 112.004C381.751 112.004 432.001 162.254 432.001 224.004C432.001 236.006 429.607 247.354 426.095 258.201L452.872 279.344ZM103.665 166.75C98.831 185.057 96.001 204.178 96.001 224.004C96.001 347.715 196.29 448.004 320.001 448.004C358.39 448.004 394.503 438.316 426.083 421.301L398.122 399.225C374.226 409.922 347.831 416.004 320.001 416.004C214.132 416.004 128.001 329.873 128.001 224.004C128.001 211.914 129.257 200.127 131.405 188.65L103.665 166.75ZM320.001 32.004C425.87 32.004 512.001 118.135 512.001 224.004C512.001 254.877 504.501 283.971 491.499 309.84L517.257 330.174C534.302 298.572 544.001 262.426 544.001 224.004C544.001 100.291 443.714 0.004 320.001 0.004C262.788 0.004 210.751 21.635 171.159 56.932L196.661 77.066C230.054 48.99 273.062 32.004 320.001 32.004ZM320.001 368.004C331.476 368.004 342.497 366.309 353.204 363.762L317.759 335.777C266.868 334.748 224.544 299.623 212.087 252.348L176.015 223.869C176.015 223.914 176.001 223.959 176.001 224.004C176.001 303.41 240.595 368.004 320.001 368.004ZM495.999 480.004H160.317L178.441 458.262C187.132 447.836 179.718 432.004 166.144 432.004H166.142C161.392 432.004 156.888 434.113 153.845 437.762L136.708 458.322C129.507 466.961 126.294 478.74 129.71 489.455C134.089 503.195 146.308 512.004 160.317 512.004C160.317 512.004 427.372 512.016 496.052 512.008C504.888 512.006 512.001 504.842 512.001 496.006C512.001 487.168 504.837 480.004 495.999 480.004ZM633.923 483.439L25.921 3.424C18.984 -2.029 8.921 -0.826 3.437 6.064C-2.032 13.002 -0.845 23.064 6.077 28.549L614.079 508.566C617.017 510.879 620.517 512.004 623.985 512.004C628.72 512.004 633.407 509.91 636.564 505.926C642.032 498.988 640.845 488.924 633.923 483.439Z"/></svg>
